!!!Genre:	Sher
!!!Mode:	Major
!!!Listening/dance:	dance
!!!One_Mode:	yes
**kern
*thru
*I"P1
*clefG2
*k[f#]
*G:
*M2/4
*>A
=1
4dd
4dd
=2
8ee
4dd
8cc
=3
8bL
16ccL
16bJJ
8aL
16bL
16aJJ
=4
8gL
8a
8b
8ccJ
=5
4dd
4dd
=6
8ee
4dd
8cc
=7
8bL
16ccL
16bJJ
8aL
16bL
16aJJ
=8
4g
4r
=9:|!|:
*>B
8bL
8ddJ
4g
=10
8bL
8ddJ
4g
=11
8eeL
16eeL
16eeJJ
8eeL
8eeJ
=12
2dd
=13
8ggL
8bJ
4dd
=14
8ccL
8bJ
4a
=15
8bL
16ccL
16bJJ
8aL
16bL
16aJJ
=16
4g
4r
=:|!
*-
